public/illustrations/_study.svg

<svg width="308" height="283" viewBox="0 0 308 283" fill="none" xmlns="http://www.w3.org/2000/svg">
<path d="M0.622897 275.666C0.566263 269.492 0.452883 263.914 0.509517 258.434C0.509517 243.497 0.339794 228.432 0.339794 213.481C0.269 198.982 0.198 184.484 0.127207 169.971C0.0422547 153.746 0.0707932 137.364 0 121.138C0.0283173 118.831 0.0563857 116.523 0.0988616 114.229C0.042227 113.082 0.41067 111.879 1.13276 111.029C1.82653 110.052 2.87429 109.429 3.97866 109.245C6.58385 108.509 9.2312 108.042 11.7939 107.886C39.1909 108.452 66.4606 109.047 93.7727 109.911L173.741 111.992C189.485 112.431 205.215 112.856 221.101 113.266C222.404 113.323 223.664 113.11 224.966 113.167C225.519 113.068 226.241 113.082 226.85 113.266C227.459 113.45 228.067 113.634 228.577 114.116C229.073 114.455 229.441 114.965 229.823 115.475C230.064 116.013 230.29 116.537 230.418 117.245C230.63 118.505 230.856 119.751 230.927 121.039C231.352 146.695 231.664 172.506 232.088 198.147C232.414 223.236 232.711 248.184 233.179 273.258C233.235 278.568 230.602 281.612 225.434 281.64C203.757 281.81 182.094 281.966 160.417 282.136C135.144 282.207 109.885 282.419 84.6121 282.49C60.33 282.532 36.0618 282.575 11.7797 282.617C8.59405 282.447 5.50774 281.258 2.86007 279.276C1.71322 278.469 1.2599 276.685 0.835139 275.892L0.651242 275.637L0.622897 275.666ZM117.942 215.52C121.906 216.851 125.375 217.828 128.744 218.96C129.962 219.328 131.109 220.135 131.973 220.985C132.836 221.835 133.615 222.995 134.111 224.213C134.365 224.893 134.493 225.586 134.479 226.308C134.465 227.031 134.309 227.781 133.983 228.404C133.657 229.027 133.176 229.551 132.695 230.061C132.185 230.443 131.534 230.839 130.868 231.094C129.92 231.406 128.914 231.434 128.036 231.292C127.159 231.151 126.196 230.613 125.516 230.004C123.364 228.362 120.872 227.215 118.182 226.677L118.494 271.602L222.333 271.276C221.682 221.962 221.059 172.775 220.578 123.574L117.771 120.699C117.347 126.519 117.148 153.576 118.324 156.238C120.008 156.804 121.708 157.526 123.18 158.56C125.502 160.315 127.583 162.397 129.41 164.662C130.16 165.681 130.359 166.8 130.274 167.961C130.189 169.122 129.523 170.24 128.645 170.977C127.909 171.685 126.975 172.124 125.998 172.294C125.021 172.463 123.973 172.208 123.01 171.656C122.033 170.962 121.184 170.255 120.461 169.363C119.782 168.768 118.961 168.187 117.8 167.239L117.984 187.33C118.918 187.741 119.527 187.924 120.136 188.109C124.822 189.454 127.994 192.781 130.783 196.462C131.534 197.482 132.029 198.685 131.944 199.846C131.859 201.007 131.35 202.253 130.5 203.117C129.509 204.009 128.291 204.504 127.017 204.589C125.743 204.674 124.497 204.164 123.492 203.329C122.345 202.522 121.566 201.361 120.405 200.412C119.754 199.945 119.103 199.492 117.927 198.543L117.998 215.491L117.942 215.52ZM11.0296 271.843L107.974 271.56C107.861 256.778 107.719 242.718 107.691 228.503C101.305 227.314 99.507 226.04 99.5495 223.01C99.6769 217.955 103.868 218.097 107.563 217.021C107.549 211.131 107.506 205.099 107.464 199.067L104.392 199.605C101.135 199.889 98.7565 198.572 97.9919 195.825C97.2556 193.22 98.6997 190.813 101.786 189.567C103.386 188.859 105.199 188.548 107.252 187.896C107.252 181.284 107.124 174.7 107.067 167.805C105.184 168.556 104.009 169.193 102.636 169.575C101.432 170.071 100.13 170.014 98.9121 169.646C97.6944 169.278 96.675 168.315 96.052 167.267C94.806 165.044 95.6273 162.312 98.19 160.57C99.7474 159.579 101.347 158.871 102.947 158.163C104.292 157.639 105.496 157.144 106.983 156.606C106.884 144.415 106.94 132.324 106.813 119.991L9.86853 116.976C10.2083 168.655 10.6048 219.881 10.9446 271.545L10.9871 271.828L11.0296 271.843Z" fill="#102185"/>
<path d="M97.3834 15.7414C102.948 13.0513 107.988 10.6018 113.184 8.26561C117.573 6.21261 122.331 5.53313 127.074 6.28354C129.863 6.66582 132.511 7.78428 134.805 9.39837C137.127 11.154 138.925 13.2778 140.114 15.9538C140.85 17.6953 141.19 19.6493 141.077 21.5324C141.133 22.6792 140.596 23.7694 139.859 24.4773C139.137 25.3268 138.075 25.794 136.928 25.8507C135.81 26.0489 134.762 25.7941 133.799 25.2419C132.837 24.6898 132.114 23.8119 131.774 22.7217C131.038 20.1165 129.806 18.0352 127.173 16.9025C125.799 16.4211 124.299 16.1096 122.883 16.2087C121.439 16.1663 119.952 16.7184 118.607 17.2423C114.119 18.7431 109.758 20.9377 105.921 23.6137C108.569 25.5959 110.876 27.3516 113.198 29.1072C117.998 32.7318 122.784 36.3563 127.725 39.9526C129.594 41.6375 131.959 42.8127 134.493 43.379C145.24 44.8232 153.069 50.2176 156.354 60.8507C159.851 71.8803 157.119 81.848 148.723 89.7627C143.965 94.6191 137.396 97.3376 130.5 97.38C123.605 97.4225 117.12 94.8173 112.137 90.0741C108.668 86.6478 106.36 82.4569 105.255 77.7562C105.057 76.6377 104.42 75.4625 103.839 74.5563C103.117 73.6785 102.24 72.8149 101.149 72.291C100.045 71.7671 98.9974 71.5122 97.6948 71.4555C96.5338 71.3706 95.2738 71.583 94.2119 72.0644C93.4048 72.3476 92.6119 72.7723 91.6632 73.0838C90.573 73.4236 89.6951 74.1458 89.1146 74.967C88.3925 75.8165 88.0101 76.8783 87.8968 77.9119C87.1747 82.0604 85.575 86.0673 83.1822 89.6495C80.7611 93.09 77.547 96.0917 73.8799 98.1588C70.0995 100.396 66.0361 101.812 61.6186 102.01C57.2153 102.336 52.9109 101.514 49.0172 99.7446C45.1236 97.9748 41.6267 95.2704 39.0073 91.7024C36.4021 88.276 34.5614 84.2834 33.9526 79.9367C32.9615 74.2166 33.5277 68.369 35.9205 63.0737C38.3133 57.7784 42.1363 53.3751 47.0777 50.3593C53.7039 46.3383 59.6079 41.4251 66.0501 37.1492C72.4923 32.8733 78.6513 28.6399 84.8245 24.4065L88.6756 21.7305C87.0757 19.989 85.7732 18.205 84.2158 16.7608C82.6583 15.3166 81.3416 14.2406 79.954 12.8955C76.6975 9.86556 73.3277 9.44089 69.6181 12.1027C68.712 12.6974 67.8625 13.561 66.8148 14.1698C65.9086 14.7645 64.8184 15.0901 63.6574 15.0051C62.4964 14.9202 61.5618 14.5096 60.7123 13.7875C59.8628 13.0654 59.3957 12.0036 59.07 10.9134C58.8718 9.7949 58.985 8.77546 59.3815 7.6994C59.5938 7.23217 59.7921 6.76488 60.1603 6.41092C65.4697 -0.25779 78.4674 -2.36746 84.5981 3.18271C88.3501 6.55246 91.8329 10.1205 95.3301 13.6743C96.0097 14.269 96.718 15.0193 97.4117 15.7556L97.3834 15.7414ZM43.8778 76.751C45.5769 86.5204 52.4581 92.2264 60.9674 91.6034C72.7615 90.853 81.0299 78.0677 76.9664 66.9815C75.8479 63.8666 74.3187 60.8367 71.2746 59.0527C64.9881 55.1166 58.518 55.0882 52.4722 59.1518C49.4847 60.9641 47.1909 63.5125 45.591 66.6699C44.1185 69.799 43.4248 73.2255 43.892 76.7368L43.8778 76.751ZM86.9625 63.3993C90.1199 62.564 93.0648 61.3322 96.0664 61.2472C99.068 61.1623 102.211 61.8985 105.751 62.4365C108.059 55.8527 112.604 50.6141 119.173 46.1683C111.358 40.0517 103.457 35.0963 95.9108 29.6594C87.2882 35.4645 78.6656 40.4058 70.4678 47.0037C77.7737 50.1894 83.6777 56.0652 86.9625 63.3993ZM147.037 66.7691C145.126 55.7537 134.55 50.2602 124.639 55.2723C122.246 56.405 120.122 58.2173 118.338 60.3836C116.695 62.5357 115.549 65.0277 115.011 67.7178C113.071 76.3829 118.296 84.9629 126.352 86.7327C137.679 89.083 149.02 78.2093 147.009 66.6276L147.037 66.7691Z" fill="#102185"/>
<path d="M291.187 149.696L291.838 153.462C294.528 168.951 297.19 184.299 300.008 199.746L300.546 202.819C301.211 207.449 299.47 209.898 295.081 211.087C290.691 212.277 285.835 213.268 281.276 214.344C279.464 214.655 277.552 215.278 275.584 215.477C274.749 215.618 274.055 215.746 273.305 215.59C272.554 215.434 271.79 215.137 271.153 214.811C270.501 214.344 269.977 213.862 269.581 213.211C269.184 212.56 268.915 211.894 268.774 211.045L268.236 207.972C264.455 187.796 260.661 167.606 256.881 147.43L256.683 146.312C253.978 141.469 255.436 136.613 256.442 131.7C257.588 125.895 258.735 120.09 259.91 114.427C260.363 112.048 261.256 109.74 262.303 107.545C264.852 102.363 270.034 101.613 273.814 105.974C276.858 109.471 279.449 113.619 282.267 117.442C283.017 118.462 283.768 119.481 284.66 120.472C294.401 130.284 300.149 142.645 307.059 154.382C307.512 155.317 307.809 156.265 307.852 157.256C308.022 158.233 307.937 159.394 307.498 160.187C307.087 161.122 306.209 161.844 305.275 162.297C304.34 162.75 303.236 162.934 302.061 162.849C301.013 162.594 300.05 162.042 299.357 161.306C298.436 160.173 297.672 159.012 297.035 157.823C295.406 155.09 293.92 152.329 292.306 149.596L291.187 149.795L291.159 149.653L291.187 149.696ZM277.807 204.32L289.29 201.757L279.351 144.414L266.48 144.783C270.246 164.817 273.928 184.441 277.694 204.489L277.807 204.32ZM282.423 133.979L269.567 117.81L266.551 134.433L282.451 134.121L282.423 133.979Z" fill="#102185"/>
<path d="M148.737 190.063L167.922 190.473C176.998 190.629 186.073 190.771 195.177 191.068C196.324 191.011 197.485 191.096 198.675 191.323C199.864 191.549 200.983 192.215 201.846 193.064C202.597 194.084 203.064 195.145 203.149 196.434C203.248 196.986 203.064 197.595 202.88 198.204C202.696 198.813 202.356 199.308 201.86 199.818C201.365 200.328 200.841 200.568 200.331 200.951C199.779 201.05 199.1 201.305 198.519 201.262C193.266 201.602 187.957 201.658 182.76 201.545C171.66 201.319 160.503 200.809 149.374 200.441C148.369 200.469 147.321 200.228 146.415 199.945C145.367 199.69 144.546 199.124 143.966 198.218C143.399 197.453 143.074 196.363 143.046 195.358C143.017 194.353 143.4 193.291 144.122 192.441C144.702 191.62 145.608 191.04 146.557 190.728L148.794 190.346L148.752 190.063H148.737Z" fill="#102185"/>
<path d="M159.285 169.688C163.037 169.759 167.483 169.702 171.971 169.929C177.904 170.198 183.681 170.34 189.67 170.878C191.864 171.076 193.847 171.741 195.758 172.846C196.735 173.539 197.471 174.417 197.797 175.508C198.137 176.598 198.207 177.872 197.655 178.835C197.273 179.911 196.438 180.916 195.361 181.383C194.314 181.992 193.039 182.077 192.02 181.964C183.482 179.996 174.69 180.661 166.011 180.293C163.561 180.293 161.126 180.279 158.648 180.137C155.151 179.882 153.098 177.943 153.14 174.913C153.197 171.883 154.953 170.439 159.299 169.816L159.271 169.674L159.285 169.688Z" fill="#102185"/>
<path d="M185.435 235.144C181.429 235.257 177.436 235.384 173.542 235.342C167.794 235.342 162.074 235.469 156.297 235.314C154.853 235.271 153.522 235.073 152.262 234.436C151.327 234.025 150.648 233.416 150.067 232.524C149.614 231.59 149.444 230.613 149.586 229.735C149.557 228.73 149.968 227.795 150.548 226.988C151.143 226.309 152.049 225.728 153.026 225.558C155.391 225.148 157.769 224.737 160.219 224.737C164.948 224.638 169.719 224.808 174.434 224.709C178.016 224.666 181.528 224.199 185.096 224.015C186.073 223.845 187.049 223.675 188.097 223.93C189.117 224.043 190.051 224.454 190.901 225.162C191.75 225.87 192.189 226.804 192.359 227.781C192.557 228.9 192.741 230.018 192.189 230.967C191.807 232.043 190.943 232.907 190.023 233.36C188.565 234.039 186.936 234.62 185.28 235.044L185.45 235.158L185.435 235.144Z" fill="#102185"/>
<path d="M168.545 157.597C164.778 157.384 160.856 157.2 157.062 156.86C153.267 156.507 149.161 156.068 145.324 155.445C143.838 155.133 142.45 154.652 141.147 153.731C140.185 153.179 139.633 152.415 139.151 151.353C138.84 150.404 138.783 149.257 139.208 148.323C139.477 147.417 140.057 146.595 140.794 145.888C141.558 145.321 142.492 144.882 143.484 144.84C144.46 144.67 145.48 144.783 146.514 144.896C153.947 145.477 161.253 146.213 168.686 146.794C173.061 147.19 175.525 150.631 173.826 154.085C172.835 155.841 171.532 156.634 168.658 157.427L168.545 157.597Z" fill="#102185"/>
<path d="M28.8409 212.135C34.4477 212.163 40.2245 212.319 45.9729 212.319C55.7283 212.206 65.4834 212.092 75.2246 211.993C76.9519 211.993 78.5519 212.135 80.1801 212.432C81.511 212.631 82.7146 212.999 83.819 213.523C86.764 214.74 88.0807 217.388 87.3728 219.951C86.5233 222.542 84.2719 223.646 81.1995 223.32C78.1271 222.995 75.0263 222.527 72.0247 222.612C59.112 222.697 46.1853 222.782 33.1593 223.023C31.6019 223.15 30.1577 223.108 28.5436 222.966C25.3296 222.655 23.2199 220.446 23.2057 217.855C23.135 214.995 25.3579 212.885 28.8692 212.418L28.8267 212.135H28.8409Z" fill="#102185"/>
<path d="M35.0999 157.894C45.5065 157.385 55.7856 157.045 66.1922 156.521C68.755 156.365 71.2892 156.068 73.8236 155.771C75.6359 155.459 77.3634 155.445 79.2465 155.544C80.4075 155.629 81.5118 156.153 82.3471 156.875C83.2108 157.725 83.6922 158.801 83.7347 159.933C83.9329 161.052 83.7063 162.241 83.0126 163.218C82.3188 164.195 81.2994 164.945 80.1808 165.144C77.4199 165.767 74.6307 166.248 71.7848 166.46C66.3904 166.829 61.0527 166.744 55.6583 167.098C47.9843 167.565 40.3525 168.315 32.6927 168.924L30.0452 169.377C28.7851 169.589 27.5817 169.236 26.5906 168.542C25.5995 167.848 24.7215 166.857 24.3817 165.767C24.1694 164.507 24.3675 163.19 25.033 162.057C25.6984 160.939 26.7177 160.188 28.0911 159.806L35.3405 158.546L35.213 157.852L35.0716 157.88L35.0999 157.894Z" fill="#102185"/>
<path d="M44.5287 180.817C53.3495 180.293 62.1702 179.769 70.9911 179.245C73.4122 179.118 75.8335 178.976 78.2688 178.99C81.5961 179.132 83.6348 180.93 83.8189 183.634C84.003 186.339 82.1341 188.816 78.5944 189.142C74.0637 189.496 69.3347 189.595 64.7898 189.949C57.5547 190.487 50.4613 190.997 43.2262 191.535C42.674 191.634 41.9659 191.747 41.2438 191.733C40.0969 191.79 38.8936 191.422 37.9025 190.728C36.9256 190.034 36.3026 188.986 36.0902 187.74C35.892 186.622 36.09 185.291 36.6564 184.342C37.3502 183.365 38.1998 182.488 39.29 182.162L44.1747 181.312L44.1038 180.888L44.5145 180.817H44.5287Z" fill="#102185"/>
</svg>

<svg xmlns="http://www.w3.org/2000/svg" width="308" height="283" fill="none" viewBox="0 0 308 283"><path fill="#102185" d="M.623 275.666c-.057-6.174-.17-11.752-.113-17.232 0-14.937-.17-30.002-.17-44.953l-.213-43.51C.042 153.746.071 137.364 0 121.138c.028-2.307.056-4.615.099-6.909-.057-1.147.312-2.35 1.034-3.2a4.4 4.4 0 0 1 2.846-1.784c2.605-.736 5.252-1.203 7.815-1.359 27.397.566 54.667 1.161 81.979 2.025l79.968 2.081c15.744.439 31.474.864 47.36 1.274 1.303.057 2.563-.156 3.865-.099a4.3 4.3 0 0 1 1.884.099c.609.184 1.217.368 1.727.85.496.339.864.849 1.246 1.359.241.538.467 1.062.595 1.77.212 1.26.438 2.506.509 3.794.425 25.656.737 51.467 1.161 77.108.326 25.089.623 50.037 1.091 75.111.056 5.31-2.577 8.354-7.745 8.382-21.677.17-43.34.326-65.017.496-25.273.071-50.532.283-75.805.354l-72.832.127c-3.186-.17-6.272-1.359-8.92-3.341-1.147-.807-1.6-2.591-2.025-3.384l-.184-.255zm117.319-60.146c3.964 1.331 7.433 2.308 10.802 3.44 1.218.368 2.365 1.175 3.229 2.025s1.642 2.01 2.138 3.228c.254.68.382 1.373.368 2.095s-.17 1.473-.496 2.096-.807 1.147-1.288 1.657c-.51.382-1.161.778-1.827 1.033-.948.312-1.954.34-2.832.198-.877-.141-1.84-.679-2.52-1.288a17.84 17.84 0 0 0-7.334-3.327l.312 44.925 103.839-.326c-.651-49.314-1.274-98.501-1.755-147.702l-102.807-2.875c-.424 5.82-.623 32.877.553 35.539 1.684.566 3.384 1.288 4.856 2.322 2.322 1.755 4.403 3.837 6.23 6.102.75 1.019.949 2.138.864 3.299s-.751 2.279-1.629 3.016a5.06 5.06 0 0 1-2.647 1.317c-.977.169-2.025-.086-2.988-.638-.977-.694-1.826-1.401-2.549-2.293-.679-.595-1.5-1.176-2.661-2.124l.184 20.091c.934.411 1.543.594 2.152.779 4.686 1.345 7.858 4.672 10.647 8.353.751 1.02 1.246 2.223 1.161 3.384s-.594 2.407-1.444 3.271a5.74 5.74 0 0 1-3.483 1.472c-1.274.085-2.52-.425-3.525-1.26-1.147-.807-1.926-1.968-3.087-2.917-.651-.467-1.302-.92-2.478-1.869l.071 16.948zM11.03 271.843l96.944-.283c-.113-14.782-.255-28.842-.283-43.057-6.386-1.189-8.184-2.463-8.142-5.493.128-5.055 4.319-4.913 8.014-5.989-.014-5.89-.057-11.922-.099-17.954l-3.072.538c-3.257.284-5.635-1.033-6.4-3.78-.736-2.605.708-5.012 3.794-6.258 1.6-.708 3.413-1.019 5.466-1.671 0-6.612-.128-13.196-.185-20.091-1.883.751-3.058 1.388-4.431 1.77-1.204.496-2.506.439-3.724.071s-2.237-1.331-2.86-2.379c-1.246-2.223-.425-4.955 2.138-6.697 1.557-.991 3.157-1.699 4.757-2.407 1.345-.524 2.549-1.019 4.036-1.557-.099-12.191-.043-24.282-.17-36.615l-96.944-3.015c.34 51.679.736 102.905 1.076 154.569l.042.283zM97.383 15.741c5.565-2.69 10.605-5.14 15.801-7.475 4.389-2.053 9.147-2.733 13.89-1.982 2.789.382 5.437 1.5 7.731 3.114 2.322 1.756 4.12 3.88 5.309 6.556a12.6 12.6 0 0 1 .963 5.578c.056 1.147-.481 2.237-1.218 2.945-.722.85-1.784 1.317-2.931 1.374-1.118.198-2.166-.057-3.129-.61a4.4 4.4 0 0 1-2.025-2.52c-.736-2.605-1.968-4.686-4.601-5.818-1.374-.482-2.874-.793-4.29-.694-1.444-.043-2.931.51-4.276 1.033a50.3 50.3 0 0 0-12.686 6.372c2.648 1.982 4.955 3.738 7.277 5.493 4.8 3.625 9.586 7.25 14.527 10.846 1.869 1.685 4.234 2.86 6.768 3.426 10.747 1.444 18.576 6.839 21.861 17.472 3.497 11.03.765 20.997-7.631 28.912-4.758 4.856-11.327 7.575-18.223 7.617-6.895.043-13.38-2.563-18.363-7.306-3.469-3.426-5.777-7.617-6.882-12.318-.198-1.118-.835-2.293-1.416-3.2-.722-.877-1.599-1.741-2.69-2.265-1.104-.524-2.152-.779-3.454-.835a7.36 7.36 0 0 0-3.483.608c-.807.284-1.6.708-2.549 1.02-1.09.34-1.968 1.062-2.548 1.883-.722.85-1.105 1.911-1.218 2.945a30.6 30.6 0 0 1-4.715 11.737c-2.42 3.441-5.635 6.443-9.302 8.51-3.78 2.237-7.844 3.653-12.261 3.851a25.8 25.8 0 0 1-12.602-2.265c-3.893-1.77-7.39-4.475-10.01-8.043-2.605-3.426-4.446-7.419-5.054-11.765-.992-5.72-.425-11.568 1.967-16.863 2.393-5.296 6.216-9.699 11.158-12.715 6.626-4.02 12.53-8.934 18.972-13.21s12.601-8.51 18.775-12.742l3.85-2.677c-1.6-1.741-2.902-3.525-4.46-4.97-1.557-1.443-2.873-2.52-4.261-3.865-3.256-3.03-6.626-3.454-10.336-.792-.906.594-1.755 1.458-2.803 2.067a5.06 5.06 0 0 1-3.158.835c-1.16-.085-2.095-.495-2.945-1.218-.85-.722-1.316-1.783-1.642-2.874-.198-1.118-.085-2.138.312-3.214.212-.467.41-.934.778-1.288 5.31-6.669 18.307-8.778 24.438-3.228 3.752 3.37 7.235 6.938 10.732 10.491.68.595 1.388 1.345 2.082 2.082zm-53.505 61.01c1.699 9.77 8.58 15.475 17.09 14.852 11.793-.75 20.062-13.535 15.998-24.621-1.118-3.115-2.647-6.145-5.691-7.93-6.287-3.935-12.757-3.964-18.803.1-2.987 1.812-5.281 4.36-6.881 7.518-1.473 3.129-2.166 6.555-1.699 10.067zm43.085-13.352c3.157-.835 6.102-2.067 9.103-2.152 3.002-.085 6.145.651 9.685 1.19 2.308-6.584 6.853-11.823 13.422-16.269-7.815-6.116-15.716-11.072-23.262-16.509-8.623 5.806-17.245 10.747-25.443 17.345 7.306 3.185 13.21 9.061 16.495 16.395m60.074 3.37c-1.911-11.015-12.487-16.509-22.398-11.497-2.393 1.133-4.517 2.945-6.301 5.112a17.8 17.8 0 0 0-3.327 7.334c-1.94 8.665 3.285 17.245 11.341 19.015 11.327 2.35 22.668-8.524 20.657-20.105zM291.187 149.696l.651 3.766c2.69 15.489 5.352 30.837 8.17 46.284l.538 3.073c.665 4.63-1.076 7.079-5.465 8.268-4.39 1.19-9.246 2.181-13.805 3.257-1.812.311-3.724.934-5.692 1.133-.835.141-1.529.269-2.279.113a8.8 8.8 0 0 1-2.152-.779c-.652-.467-1.176-.949-1.572-1.6a5.8 5.8 0 0 1-.807-2.166l-.538-3.073c-3.781-20.176-7.575-40.366-11.355-60.542l-.198-1.118c-2.705-4.843-1.247-9.699-.241-14.612 1.146-5.805 2.293-11.61 3.468-17.273.453-2.379 1.346-4.687 2.393-6.882 2.549-5.182 7.731-5.932 11.511-1.571 3.044 3.497 5.635 7.645 8.453 11.468.75 1.02 1.501 2.039 2.393 3.03 9.741 9.812 15.489 22.173 22.399 33.91.453.935.75 1.883.793 2.874.17.977.085 2.138-.354 2.931-.411.935-1.289 1.657-2.223 2.11-.935.453-2.039.637-3.214.552-1.048-.255-2.011-.807-2.704-1.543a22 22 0 0 1-2.322-3.483c-1.629-2.733-3.115-5.494-4.729-8.227l-1.119.199-.028-.142zm-13.38 54.624 11.483-2.563-9.939-57.343-12.871.369c3.766 20.034 7.448 39.658 11.214 59.706zm4.616-70.341-12.856-16.169-3.016 16.623 15.9-.312z"/><path fill="#102185" d="m148.737 190.063 19.185.41c9.076.156 18.151.298 27.255.595a14.7 14.7 0 0 1 3.498.255c1.189.226 2.308.892 3.171 1.741.751 1.02 1.218 2.081 1.303 3.37.099.552-.085 1.161-.269 1.77s-.524 1.104-1.02 1.614c-.495.51-1.019.75-1.529 1.133-.552.099-1.231.354-1.812.311-5.253.34-10.562.396-15.759.283-11.1-.226-22.257-.736-33.386-1.104-1.005.028-2.053-.213-2.959-.496-1.048-.255-1.869-.821-2.449-1.727-.567-.765-.892-1.855-.92-2.86s.354-2.067 1.076-2.917c.58-.821 1.486-1.401 2.435-1.713l2.237-.382-.042-.283zM159.285 169.688c3.752.071 8.198.014 12.686.241 5.933.269 11.71.411 17.699.949 2.194.198 4.177.863 6.088 1.968.977.693 1.713 1.571 2.039 2.662.34 1.09.41 2.364-.142 3.327-.382 1.076-1.217 2.081-2.294 2.548-1.047.609-2.322.694-3.341.581-8.538-1.968-17.33-1.303-26.009-1.671-2.45 0-4.885-.014-7.363-.156-3.497-.255-5.55-2.194-5.508-5.224.057-3.03 1.813-4.474 6.159-5.097l-.028-.142zM185.435 235.144c-4.006.113-7.999.24-11.893.198-5.748 0-11.468.127-17.245-.028-1.444-.043-2.775-.241-4.035-.878-.935-.411-1.614-1.02-2.195-1.912-.453-.934-.623-1.911-.481-2.789-.029-1.005.382-1.94.962-2.747.595-.679 1.501-1.26 2.478-1.43 2.365-.41 4.743-.821 7.193-.821 4.729-.099 9.5.071 14.215-.028 3.582-.043 7.094-.51 10.662-.694.977-.17 1.953-.34 3.001-.085q1.53.17 2.804 1.232c.849.708 1.288 1.642 1.458 2.619.198 1.119.382 2.237-.17 3.186-.382 1.076-1.246 1.94-2.166 2.393a27.6 27.6 0 0 1-4.743 1.684l.17.114zM168.545 157.597c-3.767-.213-7.689-.397-11.483-.737-3.795-.353-7.901-.792-11.738-1.415-1.486-.312-2.874-.793-4.177-1.714-.962-.552-1.514-1.316-1.996-2.378-.311-.949-.368-2.096.057-3.03.269-.906.849-1.728 1.586-2.435.764-.567 1.698-1.006 2.69-1.048.976-.17 1.996-.057 3.03.056 7.433.581 14.739 1.317 22.172 1.898 4.375.396 6.839 3.837 5.14 7.291-.991 1.756-2.294 2.549-5.168 3.342zM28.84 212.135c5.608.028 11.385.184 17.133.184 9.755-.113 19.51-.227 29.252-.326 1.727 0 3.327.142 4.955.439 1.331.199 2.535.567 3.639 1.091 2.945 1.217 4.262 3.865 3.554 6.428-.85 2.591-3.101 3.695-6.174 3.369-3.072-.325-6.173-.793-9.174-.708-12.913.085-25.84.17-38.866.411-1.557.127-3.001.085-4.615-.057-3.214-.311-5.324-2.52-5.338-5.111-.071-2.86 2.152-4.97 5.663-5.437l-.042-.283zM35.1 157.894c10.407-.509 20.686-.849 31.092-1.373 2.563-.156 5.097-.453 7.632-.75 1.812-.312 3.54-.326 5.422-.227 1.162.085 2.266.609 3.101 1.331.864.85 1.345 1.926 1.388 3.058a4.35 4.35 0 0 1-.722 3.285c-.694.977-1.714 1.727-2.832 1.926-2.761.623-5.55 1.104-8.396 1.316-5.395.369-10.732.284-16.127.638-7.674.467-15.306 1.217-22.965 1.826l-2.648.453c-1.26.212-2.463-.141-3.454-.835s-1.87-1.685-2.21-2.775c-.212-1.26-.014-2.577.652-3.71q.998-1.677 3.058-2.251l7.25-1.26-.128-.694-.141.028zM44.529 180.817l26.462-1.572c2.421-.127 4.843-.269 7.278-.255 3.327.142 5.366 1.94 5.55 4.644s-1.685 5.182-5.225 5.508c-4.53.354-9.26.453-13.804.807-7.235.538-14.329 1.048-21.564 1.586-.552.099-1.26.212-1.982.198-1.147.057-2.35-.311-3.341-1.005-.977-.694-1.6-1.742-1.813-2.988-.198-1.118 0-2.449.566-3.398.694-.977 1.544-1.854 2.634-2.18l4.885-.85-.071-.424.41-.071z"/></svg>
